icons/bhi_board.svg

<svg xmlns="http://www.w3.org/2000/svg" viewBox="0 0 512 512" enable-background="new 0 0 512 512"><path fill="#010101" d="M288 0v160h222.5v-160m-222.5 512h224v-288h-224m-288 288h224v-160h-224m0-64h224v-288h-224v288z"/></svg>

<?xml version="1.0" encoding="utf-8"?>
<!-- Generator: Adobe Illustrator 19.2.0, SVG Export Plug-In . SVG Version: 6.00 Build 0)  -->
<svg version="1.1" id="Layer_1" xmlns="http://www.w3.org/2000/svg" xmlns:xlink="http://www.w3.org/1999/xlink" x="0px" y="0px"
	 viewBox="0 0 512 512" enable-background="new 0 0 512 512" xml:space="preserve">
<path fill="#010101" d="M288,0v160h222.5V0 M288,512h224V224H288 M0,512h224V352H0 M0,288h224V0H0V288z"/>
</svg>
